packages/kaspersky-hexa-ui-icons/src/iconsSVGs/24/DataMiningRule.svg

<svg width="24" height="24" viewBox="0 0 24 24" fill="none" xmlns="http://www.w3.org/2000/svg">
<path fill-rule="evenodd" clip-rule="evenodd" d="M7 2C5.34315 2 4 3.34315 4 5V8.80987C4.60738 8.45852 5.28208 8.21058 6 8.09013V5C6 4.44772 6.44772 4 7 4H12.0093L12.0093 6.98487C12.0093 8.64173 13.3524 10 15.0093 10H18C18.3927 10 20 10 20 10V9.21461C20 8.81866 19.8434 8.43877 19.5645 8.15778L13.891 2.44317C13.6093 2.15952 13.2262 2 12.8265 2H7ZM16.5745 7.98488L14.0093 5.40105L14.0093 6.98488C14.0093 7.53716 14.457 7.98488 15.0093 7.98488H16.5745Z" fill="black"/>
<path d="M7.29603 20C7.19796 20.0048 7.09926 20.0072 7 20.0072C5.91008 20.0072 4.88804 19.7166 4.00714 19.2086C4.11425 20.7681 5.41327 22 7 22H17C18.3062 22 19.4175 21.1652 19.8293 20C19.8293 20 18 20 7.29603 20Z" fill="black"/>
<path fill-rule="evenodd" clip-rule="evenodd" d="M4 16.653C4.5211 17.2434 5.21378 17.6788 6 17.8812C6.31962 17.9634 6.6547 18.0072 7 18.0072C9.20914 18.0072 11 16.2163 11 14.0072C11 11.798 9.20914 10.0072 7 10.0072C6.6547 10.0072 6.31962 10.0509 6 10.1332C5.21378 10.3356 4.5211 10.7709 4 11.3614C3.37764 12.0665 3 12.9927 3 14.0072C3 15.0216 3.37764 15.9479 4 16.653ZM6.99994 11.5071C7.27608 11.5071 7.49994 11.731 7.49994 12.0071V13.8L8.85349 15.1536C9.04875 15.3489 9.04875 15.6654 8.85349 15.8607C8.65823 16.056 8.34165 16.056 8.14639 15.8607L6.64639 14.3607C6.55262 14.2669 6.49994 14.1398 6.49994 14.0071V12.0071C6.49994 11.731 6.7238 11.5071 6.99994 11.5071Z" fill="black"/>
<path d="M19.7164 12.3001C19.3259 11.9095 18.6927 11.9095 18.3022 12.3001C17.9116 12.6906 17.9116 13.3238 18.3022 13.7143L18.5951 14.0072H14.0093C13.457 14.0072 13.0093 14.4549 13.0093 15.0072C13.0093 15.5595 13.457 16.0072 14.0093 16.0072H18.5951L18.3022 16.3001C17.9116 16.6906 17.9116 17.3238 18.3022 17.7143C18.6927 18.1048 19.3259 18.1048 19.7164 17.7143L21.7164 15.7143C21.9039 15.5267 22.0093 15.2724 22.0093 15.0072C22.0093 14.742 21.9039 14.4876 21.7164 14.3001L19.7164 12.3001Z" fill="black"/>
</svg>

<svg xmlns="http://www.w3.org/2000/svg" width="24" height="24" fill="none" viewBox="0 0 24 24"><path fill="#000" fill-rule="evenodd" d="M7 2C5.3431 2 4 3.3431 4 5v3.8099A5.96 5.96 0 0 1 6 8.09V5c0-.5523.4477-1 1-1h5.0093v2.9849c0 1.6568 1.3431 3.0151 3 3.0151H20v-.7854c0-.396-.1566-.7758-.4355-1.0568L13.891 2.4432A1.5 1.5 0 0 0 12.8265 2zm9.5745 5.9849L14.0093 5.401v1.584c0 .5523.4477 1 1 1zM4 16.653a4 4 0 0 0 2 1.2282c.3196.0822.6547.126 1 .126 2.2091 0 4-1.7909 4-4s-1.7909-4-4-4c-.3453 0-.6804.0437-1 .126a4 4 0 0 0-2 1.2282 3.985 3.985 0 0 0-1 2.6458 3.985 3.985 0 0 0 1 2.6458m3-5.1459a.5.5 0 0 1 .5.5V13.8l1.3535 1.3536a.5.5 0 1 1-.7071.7071l-1.5-1.5a.5.5 0 0 1-.1465-.3536v-2a.5.5 0 0 1 .5-.5m12.7164.793c-.3905-.3906-1.0237-.3906-1.4142 0-.3906.3905-.3906 1.0237 0 1.4142l.2929.2929h-4.5858c-.5523 0-1 .4477-1 1s.4477 1 1 1h4.5858l-.2929.2929c-.3906.3905-.3906 1.0237 0 1.4142s1.0237.3905 1.4142 0l2-2a1.0003 1.0003 0 0 0 0-1.4142zM7.296 20a6 6 0 0 1-.296.0072c-1.09 0-2.112-.2906-2.9929-.7986C4.1143 20.7681 5.4133 22 7 22h10c1.3062 0 2.4175-.8348 2.8293-2z"/></svg>
